epam-assets/icon-sources/18/table-column_plus_before.svg

<svg xmlns="http://www.w3.org/2000/svg" width="18" height="18" fill="none" viewBox="0 0 18 18">
  <path fill="#6C6F80" fill-rule="evenodd" d="M9.75 1.5A1.5 1.5 0 0 0 8.25 3v12a1.5 1.5 0 0 0 1.5 1.5h6.75v-15H9.75Zm5.25 6v3H9.75v-3H15Zm0 4.5v3H9.75v-3H15Zm0-9v3H9.75V3H15ZM6.75 8.25H4.5V6H3v2.25H.75v1.5H3V12h1.5V9.75h2.25v-1.5Z" clip-rule="evenodd"/>
</svg>

<svg width="18" height="18" viewBox="0 0 18 18" fill="none" xmlns="http://www.w3.org/2000/svg">
<g id="18/table-column_plus_before">
<path id="icon" fill-rule="evenodd" clip-rule="evenodd" d="M9.75 1.5C8.92157 1.5 8.25 2.17157 8.25 3V15C8.25 15.8284 8.92157 16.5 9.75 16.5H16.5V1.5H9.75ZM15 7.5V10.5H9.75V7.5H15ZM15 12V15H9.75V12H15ZM15 3V6H9.75V3H15ZM6.75 8.25H4.5V6H3V8.25H0.75V9.75H3V12H4.5V9.75H6.75V8.25Z" fill="#6C6F80"/>
</g>
</svg>
